images_sukapura_svg/cmd/lc_datafilterautofilter.svg

<svg viewBox="0 0 24 24" xmlns="http://www.w3.org/2000/svg"><path d="m4.7547046 2.9960938-1.2488452.6953124v1.1875.3613282l5.9941406 8.3828126v4.310547.04687l2.878906 2.02539 1.003906-2.005854h-.382812c-.838869.00035-1.305407-.970049-.78125-1.625l2.964844-3.699219 5.310547-7.4355466v-1.5488282l-1.176936-.6953124z" fill="#848489"/><path d="m17.004237 12h5.995763l-4 4h2l-9 7 3-6h-2z" fill="#ff9500" fill-rule="evenodd"/><path d="m4.7547046 2.4902344c-.1322075.0000806-.2591191.051967-.3535156.1445312l-1.2488452.6953125c-.0973445.0950285-.1522656.22529-.1523438.3613281v1.1875.3613282c-.0003594.1056921.032428.2088369.09375.2949218l5.9003906 8.2499998v4.148438.04687c-.0001807.164795.080001.319327.2148438.414062l2.9414066 2.070313.457031-.916016-2.601563-1.830078v-4.095703c-.00021-.105907-.033687-.209071-.095703-.294922l-5.9003906-8.25v-.1992138-.9746093l.9519704-.4042969h14.1484382l.88006.4042969v1.1738281l-5.894531 8.25c-.062016.085851-.095493.189015-.095703.294922v.529297l2.224609-2.777344c.189069-.236127.474851-.373992.777344-.375l3.904297-5.4648438c.061322-.0860849.094109-.1892297.09375-.2949218v-1.5488282c-.000078-.1360382-.055-.2662996-.152344-.3613281l-1.176935-.6953125c-.0944-.092564-.221309-.1444507-.353516-.1445312zm10.2570144 16.7226566-.146485.292968.146485-.113281z" fill="#69696e"/><ellipse cx="11.994952" cy="3.764185" fill="#cdcdd0" rx="8.493799" ry="2.263032" stroke="#69696e" stroke-linecap="round" stroke-linejoin="round" stroke-width="1.002306"/></svg>

<?xml version="1.0" encoding="UTF-8" standalone="no"?>
<svg
   xmlns:dc="http://purl.org/dc/elements/1.1/"
   xmlns:cc="http://creativecommons.org/ns#"
   xmlns:rdf="http://www.w3.org/1999/02/22-rdf-syntax-ns#"
   xmlns:svg="http://www.w3.org/2000/svg"
   xmlns="http://www.w3.org/2000/svg"
   xmlns:sodipodi="http://sodipodi.sourceforge.net/DTD/sodipodi-0.dtd"
   xmlns:inkscape="http://www.inkscape.org/namespaces/inkscape"
   viewBox="0 0 24 24"
   version="1.1"
   id="svg8"
   sodipodi:docname="lc_datafilterautofilter.svg"
   inkscape:version="0.92.3 (2405546, 2018-03-11)">
  <metadata
     id="metadata14">
    <rdf:RDF>
      <cc:Work
         rdf:about="">
        <dc:format>image/svg+xml</dc:format>
        <dc:type
           rdf:resource="http://purl.org/dc/dcmitype/StillImage" />
        <dc:title />
      </cc:Work>
    </rdf:RDF>
  </metadata>
  <defs
     id="defs12" />
  <sodipodi:namedview
     pagecolor="#ffffff"
     bordercolor="#666666"
     borderopacity="1"
     objecttolerance="10"
     gridtolerance="10"
     guidetolerance="10"
     inkscape:pageopacity="0"
     inkscape:pageshadow="2"
     inkscape:window-width="1366"
     inkscape:window-height="685"
     id="namedview10"
     showgrid="true"
     inkscape:zoom="6.9532167"
     inkscape:cx="-38.137075"
     inkscape:cy="11.003203"
     inkscape:window-x="0"
     inkscape:window-y="0"
     inkscape:window-maximized="1"
     inkscape:current-layer="svg8">
    <inkscape:grid
       type="xygrid"
       id="grid834"
       spacingx="0.5"
       spacingy="0.5"
       empspacing="2" />
  </sodipodi:namedview>
  <g
     id="g823">
    <path
       sodipodi:nodetypes="cccccccccccccccc"
       inkscape:connector-curvature="0"
       style="fill:#848489;fill-opacity:1"
       id="path2"
       d="M 4.7547046,2.9960938 3.5058594,3.6914062 v 1.1875 0.3613282 L 9.5,13.623047 v 4.310547 0.04687 l 2.878906,2.02539 L 13.382812,18 H 13 c -0.838869,3.5e-4 -1.305407,-0.970049 -0.78125,-1.625 l 2.964844,-3.699219 5.310547,-7.4355466 V 3.6914062 L 19.317205,2.9960938 Z" />
    <path
       style="fill:#ff9500;fill-opacity:1"
       id="path4"
       fill-rule="evenodd"
       fill="#eac282"
       d="m17.004237 12h5.995763l-4 4h2l-9 7 3-6h-2z" />
    <path
       sodipodi:nodetypes="ccccccccccccccccccccccccccccccccccccccc"
       inkscape:connector-curvature="0"
       style="fill:#69696e;fill-opacity:1"
       id="path6"
       d="M 4.7547046,2.4902344 C 4.6224971,2.490315 4.4955855,2.5422014 4.401189,2.6347656 L 3.1523438,3.3300781 C 3.0549993,3.4251066 3.0000782,3.5553681 3,3.6914062 v 1.1875 0.3613282 c -3.594e-4,0.1056921 0.032428,0.2088369 0.09375,0.2949218 l 5.9003906,8.2499998 v 4.148438 0.04687 c -1.807e-4,0.164795 0.080001,0.319327 0.2148438,0.414062 l 2.9414066,2.070313 0.457031,-0.916016 -2.601563,-1.830078 v -4.095703 c -2.1e-4,-0.105907 -0.033687,-0.209071 -0.095703,-0.294922 l -5.9003906,-8.25 V 4.8789062 3.9042969 L 4.9617358,3.5 H 19.110174 l 0.88006,0.4042969 V 5.078125 l -5.894531,8.25 C 14.033687,13.413976 14.00021,13.51714 14,13.623047 v 0.529297 L 16.224609,11.375 C 16.413678,11.138873 16.69946,11.001008 17.001953,11 L 20.90625,5.5351562 C 20.967572,5.4490713 21.000359,5.3459265 21,5.2402344 V 3.6914062 c -7.8e-5,-0.1360382 -0.055,-0.2662996 -0.152344,-0.3613281 L 19.670721,2.6347656 c -0.0944,-0.092564 -0.221309,-0.1444507 -0.353516,-0.1445312 z m 10.2570144,16.7226566 -0.146485,0.292968 0.146485,-0.113281 z" />
    <ellipse
       cx="11.994952"
       cy="3.764185"
       rx="8.4937992"
       ry="2.2630322"
       id="path832"
       style="opacity:1;fill:#cdcdd0;fill-opacity:1;stroke:#69696e;stroke-width:1.00230575;stroke-linecap:round;stroke-linejoin:round;stroke-miterlimit:4;stroke-dasharray:none;stroke-opacity:1" />
  </g>
</svg>
